X:29
T:Buffalo Shuffle
M:4/4
Q:112
C:© Paul Gitlitz 2007
R:Swing
K:G
G,2G,2-|"G6"G,ABc ^cd2G|Bc^cd- d [dg]z[dg]|z ABc ^cd2G|"A7"BGBA- "D7"ADEG-|!
"G6"GABc ^cd2G|Bc^cd- d2ze|gbgd "Em"edB_B|"D7"AGEG- "G6"GG,2G,-|!
"G6"G, ABc ^cd2G|Bc^cd- d[dg]z[dg]|z ABc ^cd2G|"A7"BGBA- "D7"ADEG-|!
"G6"GABc ^cd2G|Bc^cd- d2ze|gbgd "A7"edB_B|"D7"AGEG-"G6"G3e|!
|:"C7"_bege "C7/G"bege|"G/B"bgeB- "Em"B3e|"C7"_bege "C7/Bb"bege|"A7"afed- "D7"d3e|!
"G6"bege "Em"beg_b|"Edim"ged_B- "Bbdim"B3e|"G6"gbgd "Em7"edB_B|"D7"AGE2"G6"G4:|]
